resources/svg/dollar-o.svg

<svg width="15" height="15" viewBox="0 0 15 15" fill="none" xmlns="http://www.w3.org/2000/svg">
<path d="M2.5 10.5C2.5 12.1569 3.84315 13.5 5.5 13.5H9.5C11.1569 13.5 12.5 12.1569 12.5 10.5C12.5 8.84315 11.1569 7.5 9.5 7.5H5.5C3.84315 7.5 2.5 6.15685 2.5 4.5C2.5 2.84315 3.84315 1.5 5.5 1.5H9.5C11.1569 1.5 12.5 2.84315 12.5 4.5M7.5 0V1.5M7.5 15V13.5" stroke="black"/>
</svg>

<svg viewBox="0 0 15 15" fill="none" xmlns="http://www.w3.org/2000/svg" fill="currentColor"><path d="M2.5 10.5a3 3 0 003 3h4a3 3 0 100-6h-4a3 3 0 010-6h4a3 3 0 013 3M7.5 0v1.5m0 13.5v-1.5" stroke="currentColor"/></svg>
